src/img/download.svg

<svg fill="none" height="16" viewBox="0 0 15 16" width="15" xmlns="http://www.w3.org/2000/svg"><path clip-rule="evenodd" d="m7.20054 11.2666c-.06667 0-.13334-.0666-.2-.1333l-2.66667-2.66667c-.26667-.26667-.26667-.66667 0-.93334.26667-.26666.66667-.26666.93333 0l1.53334 1.53334v-7.73334c0-.399997.26666-.666664.66666-.666664s.66667.266667.66667.666664v7.73334l1.53333-1.53334c.26667-.26666.6667-.26666.9333 0 .2667.26667.2667.66667 0 .93334l-2.66663 2.66667c-.03333.0333-.06667.05-.1.0667-.03333.0166-.06667.0333-.1.0666-.06667.0667-.2.0667-.26667.0667-.06666 0-.2 0-.26666-.0667zm6.93336 2.0667v-2c0-.4-.2667-.6667-.6667-.6667s-.6667.2667-.6667.6667v2c0 .4-.2666.6667-.6666.6667h-9.33336c-.4 0-.66667-.2667-.66667-.6667v-2c0-.4-.26667-.6667-.66667-.6667s-.666663.2667-.666663.6667v2c0 1.1333.866663 2 2.000003 2h9.33336c1.1333 0 2-.8667 2-2z" fill="#6f6f6f" fill-rule="evenodd"/></svg>

<svg width="15" height="16" viewBox="0 0 15 16" fill="none" 
  xmlns="http://www.w3.org/2000/svg">
  <path fill-rule="evenodd" clip-rule="evenodd" d="M7.20054 11.2666C7.13387 11.2666 7.0672 11.2 7.00054 11.1333L4.33387 8.46663C4.0672 8.19996 4.0672 7.79996 4.33387 7.53329C4.60054 7.26663 5.00054 7.26663 5.2672 7.53329L6.80054 9.06663L6.80054 1.33329C6.80054 0.933293 7.0672 0.666626 7.4672 0.666626C7.8672 0.666626 8.13387 0.933293 8.13387 1.33329L8.13387 9.06663L9.6672 7.53329C9.93387 7.26663 10.3339 7.26663 10.6005 7.53329C10.8672 7.79996 10.8672 8.19996 10.6005 8.46663L7.93387 11.1333C7.90054 11.1666 7.8672 11.1833 7.83387 11.2C7.80054 11.2166 7.7672 11.2333 7.73387 11.2666C7.6672 11.3333 7.53387 11.3333 7.4672 11.3333C7.40054 11.3333 7.2672 11.3333 7.20054 11.2666ZM14.1339 13.3333L14.1339 11.3333C14.1339 10.9333 13.8672 10.6666 13.4672 10.6666C13.0672 10.6666 12.8005 10.9333 12.8005 11.3333L12.8005 13.3333C12.8005 13.7333 12.5339 14 12.1339 14L2.80054 14C2.40054 14 2.13387 13.7333 2.13387 13.3333L2.13387 11.3333C2.13387 10.9333 1.8672 10.6666 1.4672 10.6666C1.0672 10.6666 0.800537 10.9333 0.800537 11.3333L0.800537 13.3333C0.800537 14.4666 1.6672 15.3333 2.80054 15.3333L12.1339 15.3333C13.2672 15.3333 14.1339 14.4666 14.1339 13.3333Z" fill="#6F6F6F"/>
</svg>
